assets/img/templates/pieprogress/circle8.svg

<svg height="120" viewBox="0 0 105 120" width="105" xmlns="http://www.w3.org/2000/svg" xmlns:xlink="http://www.w3.org/1999/xlink"><defs><linearGradient id="a" x1="50%" x2="50%" y1="0%" y2="100%"><stop offset="0" stop-color="#83a4f5"/><stop offset="1" stop-color="#1e40c9"/></linearGradient><path id="b" d="m27.2612137 0c19.5405806 0 35.4183961 15.7238611 35.7339983 35.2407633l.004788.59257h-16.6226913c0-10.4796051-8.3882692-18.9948421-18.7999759-19.1640988l-.3161191-.0025678z"/><filter id="c" height="139.1%" width="139.2%" x="-19.6%" y="-14%"><feOffset dx="0" dy="2" in="SourceAlpha" result="shadowOffsetOuter1"/><feGaussianBlur in="shadowOffsetOuter1" result="shadowBlurOuter1" stdDeviation="2"/><feColorMatrix in="shadowBlurOuter1" type="matrix" values="0 0 0 0 0   0 0 0 0 0   0 0 0 0 0  0 0 0 0.5 0"/></filter></defs><g fill="none" fill-rule="evenodd"><path d="m0 0h105v120h-105z" fill="#fff"/><g transform="translate(21 10)"><g fill-rule="nonzero"><path d="m27.1780173 8.5c-15.0100063 0-27.1780173 12.2002509-27.1780173 27.25s12.168011 27.25 27.1780173 27.25c15.0100212 0 27.1781832-12.2002659 27.1781832-27.25s-12.168162-27.25-27.1781832-27.25zm0 13.3333333c7.6656753 0 13.8800302 6.2307506 13.8800302 13.9166667s-6.2143549 13.9166667-13.8800302 13.9166667c-7.6656271 0-13.8798643-6.2307022-13.8798643-13.9166667s6.2142372-13.9166667 13.8798643-13.9166667z" fill="#d7eefc"/><use fill="#000" filter="url(#c)" xlink:href="#b"/><use fill="url(#a)" xlink:href="#b"/></g><path d="m17.9177719 87.9822647c.841733 0 1.6184792-.133015 2.3302387-.3990451.7117595-.26603 1.2811671-.6680309 1.7082228-1.2060027s.6405836-1.1912233.6405836-1.9597544c0-.9222374-.3373121-1.6819009-1.0119364-2.2789905-.6746242-.5970896-1.5999115-.9606639-2.775862-1.090723 1.0645446-.319236 1.8381963-.7389723 2.3209549-1.2592088.4827586-.5202364.7241379-1.0877671.7241379-1.702592 0-1.0522965-.3527851-1.8296954-1.0583554-2.3321965s-1.6030062-.7537517-2.6923077-.7537517c-.7922193 0-1.4761273.1389268-2.0517242.4167804-.5755968.2778535-1.0088417.6148249-1.2997347 1.010914s-.4363395.771487-.4363395 1.1261937c0 .2601183.0742705.4758982.2228116.6473397.1485412.1714416.3527852.2571624.6127321.2571624.2723254 0 .4765694-.0827649.6127321-.2482947s.2042441-.3369714.2042441-.5143247c0-.2837653-.0990274-.5261482-.2970823-.7271487.1114059-.319236.3713528-.611869.7798409-.877899.408488-.2660301.872679-.3990451 1.3925729-.3990451.8045977 0 1.3740053.2246476 1.7082228.6739427.3342175.4492952.5013263 1.0700319.5013263 1.8622101 0 .3665303-.086649.7448841-.259947 1.1350614-.1732979.3901774-.4518125.7182811-.8355437.9843111s-.8788683.399045-1.4854112.399045h-.7612732v.79809c.4208665-.0236471.6931919-.0354706.8169762-.0354706 1.1883289 0 2.0114942.2778535 2.469496.8335607.4580017.5557071.6870026 1.2887676.6870026 2.1991814 0 .8631196-.2599469 1.5281947-.7798408 1.9952251-.5198939.4670305-1.2254642.7005457-2.1167109.7005457-.5570292 0-1.045977-.0945884-1.4668435-.2837653s-.6870026-.4729423-.7984085-.8512961c.1361627-.2837653.2042441-.5202364.2042441-.7094133s-.0649868-.3694862-.1949603-.5409277c-.1299734-.1714416-.3373121-.2571624-.6220159-.2571624s-.5075154.0916326-.668435.2748977c-.1609195.1832651-.2413793.4167804-.2413793.7005457 0 .3783538.1485411.7507958.4456233 1.1173261.2970823.3665302.739611.6739427 1.3275862.9222373.5879753.2482947 1.3028294.3724421 2.1445624.3724421zm14.5013262-.2837654.1114059-2.4829468h-.5570292c0 .4965894-.1609195.827649-.4827586.9931787-.3218391.1655298-.8231654.2482947-1.5039788.2482947-.4703802 0-.841733-.0059118-1.1140584-.0177353l-3.2864721-.0886767c.086649-.4020009.393015-.8926785.9190981-1.4720327.5260832-.5793543 1.2223696-1.2119145 2.0888595-1.8976808 1.2749779-.9931787 2.2002652-1.8799454 2.775862-2.6603001s.8633953-1.4838563.8633953-2.1105048c0-1.1114143-.3713528-1.9242838-1.1140584-2.4386085s-1.6710875-.771487-2.7851459-.771487c-.8045977 0-1.5008842.1389268-2.0888594.4167804-.5879753.2778535-1.0335986.6177808-1.33687 1.0197817-.3032715.4020009-.4549072.7862665-.4549072 1.1527967 0 .2837653.0804598.5172806.2413793.7005457.1609196.1832651.377542.2748977.6498674.2748977.2847038 0 .5013262-.0886767.6498674-.26603.1485411-.1773534.2228116-.3665303.2228116-.5675307 0-.2955889-.1114058-.5557072-.3342175-.7803547.1361627-.3665303.4022989-.668031.7984085-.9045021.3961097-.2364711.8479222-.3547067 1.3554377-.3547067.8169761 0 1.4018567.2630742 1.7546419.7892224.3527851.5261483.5291777 1.1793997.5291777 1.9597544 0 .5911779-.1825818 1.200091-.5477454 1.8267395-.3651635.6266484-.9438549 1.3005911-1.7360742 2.0218281-.0123784.0118235-.259947.2305593-.7427056.6562073-.6931919.614825-1.2254642 1.1261938-1.596817 1.5341065-.3713528.4079126-.683908.877899-.9376658 1.409959-.2537577.5320601-.3806366 1.1350614-.3806366 1.8090041zm5.1061008-5.941337c.6189213 0 1.188329-.1625739 1.7082229-.4877216.5198938-.3251478.9345711-.7567076 1.2440318-1.2946794.3094606-.5379719.464191-1.1084584.464191-1.7114598 0-.5557071-.1237843-1.0848113-.3713528-1.5873124-.2475685-.5025012-.6220159-.9074579-1.1233422-1.2148704s-1.1047745-.4611187-1.8103448-.4611187c-.7179487 0-1.3399647.1625739-1.8660478.4877217s-.9252873.7537517-1.1976127 1.2858117c-.2723254.5320601-.4084881 1.0877672-.4084881 1.6671214 0 .5793543.1299735 1.1232379.3899205 1.6316508.2599469.5084129.6436781.9163256 1.1511936 1.2237381.5075155.3074124 1.1140583.4611186 1.8196286.4611186zm-.9655172 6.2428377 10.5278515-12.2905866-.8355438-.7094134-10.4721486 12.3792633zm1.0212202-6.952251c-.6560566 0-1.1233422-.3015007-1.4018568-.9045021-.2785146-.6030013-.4177719-1.2710323-.4177719-2.0040927 0-.5911778.1423519-1.1587085.4270557-1.7025921s.7365164-.8158254 1.3554377-.8158254c.6312997 0 1.0893015.3015007 1.3740053.904502.2847038.6030014.4270557 1.2769441.4270557 2.0218281 0 .6621192-.1392573 1.2444293-.4177719 1.7469305-.2785146.5025011-.7272325.7537517-1.3461538.7537517zm7.9840848 6.9345157c.7055703 0 1.3183024-.1655298 1.8381963-.4965894s.9160036-.7626194 1.1883289-1.2946794c.2723254-.53206.4084881-1.0818554.4084881-1.6493861 0-.5793542-.1299735-1.1232378-.3899204-1.6316507-.259947-.5084129-.6436782-.9163256-1.1511937-1.2237381-.5075154-.3074125-1.1140583-.4611187-1.8196286-.4611187-.6189213 0-1.1914235.1625739-1.7175066.4877217s-.943855.7537517-1.2533157 1.2858117c-.3094606.5320601-.464191 1.0995908-.464191 1.7025921 0 .5557072.1268789 1.0848113.3806366 1.5873124.2537578.5025012.6343944.9104139 1.1419099 1.2237381.5075154.3133242 1.1202475.4699864 1.8381962.4699864zm.0928382-.6384721c-.6189213 0-1.0800176-.3074124-1.3832891-.9222373-.3032714-.614825-.4549072-1.2828559-.4549072-2.0040928 0-.6621192.1392573-1.2444293.4177719-1.7469304.2785146-.5025012.7272326-.7537517 1.3461539-.7537517.6560566 0 1.1233422.3015006 1.4018567.904502.2785146.6030014.4177719 1.2710323.4177719 2.0040928 0 .6030013-.1361627 1.1734879-.408488 1.7114597-.2723254.5379718-.7179488.8069577-1.3368701.8069577z" fill="#2e51d1" fill-rule="nonzero"/><text fill="#161b2e" font-family="Luxia-Regular, Luxia" font-size="7"><tspan x="25" y="98">Title</tspan></text></g></g></svg>

<?xml version="1.0" encoding="UTF-8"?>
<svg width="105px" height="120px" viewBox="0 0 105 120" version="1.1" xmlns="http://www.w3.org/2000/svg" xmlns:xlink="http://www.w3.org/1999/xlink">
    <!-- Generator: Sketch 61.1 (89650) - https://sketch.com -->
    <title>circle8</title>
    <desc>Created with Sketch.</desc>
    <defs>
        <linearGradient x1="50%" y1="0%" x2="50%" y2="100%" id="linearGradient-1">
            <stop stop-color="#83A4F5" offset="0%"></stop>
            <stop stop-color="#1E40C9" offset="100%"></stop>
        </linearGradient>
        <path d="M27.2612137,0 C46.8017943,0 62.6796098,15.7238611 62.995212,35.2407633 L63,35.8333333 L46.3773087,35.8333333 C46.3773087,25.3537282 37.9890395,16.8384912 27.5773328,16.6692345 L27.2612137,16.6666667 L27.2612137,0 Z" id="path-2"></path>
        <filter x="-19.6%" y="-14.0%" width="139.2%" height="139.1%" filterUnits="objectBoundingBox" id="filter-3">
            <feOffset dx="0" dy="2" in="SourceAlpha" result="shadowOffsetOuter1"></feOffset>
            <feGaussianBlur stdDeviation="2" in="shadowOffsetOuter1" result="shadowBlurOuter1"></feGaussianBlur>
            <feColorMatrix values="0 0 0 0 0   0 0 0 0 0   0 0 0 0 0  0 0 0 0.5 0" type="matrix" in="shadowBlurOuter1"></feColorMatrix>
        </filter>
    </defs>
    <g id="circle8" stroke="none" stroke-width="1" fill="none" fill-rule="evenodd">
        <rect fill="#FFFFFF" x="0" y="0" width="105" height="120"></rect>
        <g id="Group" transform="translate(21.000000, 10.000000)">
            <g id="Group-27" fill-rule="nonzero">
                <path d="M27.1780173,8.5 C12.168011,8.5 0,20.7002509 0,35.75 C0,50.7997491 12.168011,63 27.1780173,63 C42.1880385,63 54.3562005,50.7997341 54.3562005,35.75 C54.3562005,20.7002659 42.1880385,8.5 27.1780173,8.5 Z M27.1780173,21.8333333 C34.8436926,21.8333333 41.0580475,28.0640839 41.0580475,35.75 C41.0580475,43.4359161 34.8436926,49.6666667 27.1780173,49.6666667 C19.5123902,49.6666667 13.298153,43.4359645 13.298153,35.75 C13.298153,28.0640355 19.5123902,21.8333333 27.1780173,21.8333333 Z" id="Stroke-1" fill="#D7EEFC"></path>
                <g id="Stroke-3">
                    <use fill="black" fill-opacity="1" filter="url(#filter-3)" xlink:href="#path-2"></use>
                    <use fill="url(#linearGradient-1)" xlink:href="#path-2"></use>
                </g>
            </g>
            <path d="M17.9177719,87.9822647 C18.7595049,87.9822647 19.5362511,87.8492497 20.2480106,87.5832196 C20.9597701,87.3171896 21.5291777,86.9151887 21.9562334,86.3772169 C22.3832891,85.8392451 22.596817,85.1859936 22.596817,84.4174625 C22.596817,83.4952251 22.2595049,82.7355616 21.5848806,82.138472 C20.9102564,81.5413824 19.9849691,81.1778081 18.8090186,81.047749 C19.8735632,80.728513 20.6472149,80.3087767 21.1299735,79.7885402 C21.6127321,79.2683038 21.8541114,78.7007731 21.8541114,78.0859482 C21.8541114,77.0336517 21.5013263,76.2562528 20.795756,75.7537517 C20.0901857,75.2512506 19.1927498,75 18.1034483,75 C17.311229,75 16.627321,75.1389268 16.0517241,75.4167804 C15.4761273,75.6946339 15.0428824,76.0316053 14.7519894,76.4276944 C14.4610964,76.8237835 14.3156499,77.1991814 14.3156499,77.5538881 C14.3156499,77.8140064 14.3899204,78.0297863 14.5384615,78.2012278 C14.6870027,78.3726694 14.8912467,78.4583902 15.1511936,78.4583902 C15.423519,78.4583902 15.627763,78.3756253 15.7639257,78.2100955 C15.9000884,78.0445657 15.9681698,77.8731241 15.9681698,77.6957708 C15.9681698,77.4120055 15.8691424,77.1696226 15.6710875,76.9686221 C15.7824934,76.6493861 16.0424403,76.3567531 16.4509284,76.0907231 C16.8594164,75.824693 17.3236074,75.691678 17.8435013,75.691678 C18.648099,75.691678 19.2175066,75.9163256 19.5517241,76.3656207 C19.8859416,76.8149159 20.0530504,77.4356526 20.0530504,78.2278308 C20.0530504,78.5943611 19.9664014,78.9727149 19.7931034,79.3628922 C19.6198055,79.7530696 19.3412909,80.0811733 18.9575597,80.3472033 C18.5738285,80.6132333 18.0786914,80.7462483 17.4721485,80.7462483 L17.4721485,80.7462483 L16.7108753,80.7462483 L16.7108753,81.5443383 C17.1317418,81.5206912 17.4040672,81.5088677 17.5278515,81.5088677 C18.7161804,81.5088677 19.5393457,81.7867212 19.9973475,82.3424284 C20.4553492,82.8981355 20.6843501,83.631196 20.6843501,84.5416098 C20.6843501,85.4047294 20.4244032,86.0698045 19.9045093,86.5368349 C19.3846154,87.0038654 18.6790451,87.2373806 17.7877984,87.2373806 C17.2307692,87.2373806 16.7418214,87.1427922 16.3209549,86.9536153 C15.9000884,86.7644384 15.6339523,86.480673 15.5225464,86.1023192 C15.6587091,85.8185539 15.7267905,85.5820828 15.7267905,85.3929059 C15.7267905,85.203729 15.6618037,85.0234197 15.5318302,84.8519782 C15.4018568,84.6805366 15.1945181,84.5948158 14.9098143,84.5948158 C14.6251105,84.5948158 14.4022989,84.6864484 14.2413793,84.8697135 C14.0804598,85.0529786 14,85.2864939 14,85.5702592 C14,85.948613 14.1485411,86.321055 14.4456233,86.6875853 C14.7427056,87.0541155 15.1852343,87.361528 15.7732095,87.6098226 C16.3611848,87.8581173 17.0760389,87.9822647 17.9177719,87.9822647 Z M32.4190981,87.6984993 L32.530504,85.2155525 L31.9734748,85.2155525 C31.9734748,85.7121419 31.8125553,86.0432015 31.4907162,86.2087312 C31.1688771,86.374261 30.6675508,86.4570259 29.9867374,86.4570259 C29.5163572,86.4570259 29.1450044,86.4511141 28.872679,86.4392906 L28.872679,86.4392906 L25.5862069,86.3506139 C25.6728559,85.948613 25.9792219,85.4579354 26.505305,84.8785812 C27.0313882,84.2992269 27.7276746,83.6666667 28.5941645,82.9809004 C29.8691424,81.9877217 30.7944297,81.100955 31.3700265,80.3206003 C31.9456233,79.5402456 32.2334218,78.836744 32.2334218,78.2100955 C32.2334218,77.0986812 31.862069,76.2858117 31.1193634,75.771487 C30.3766578,75.2571623 29.4482759,75 28.3342175,75 C27.5296198,75 26.8333333,75.1389268 26.2453581,75.4167804 C25.6573828,75.6946339 25.2117595,76.0345612 24.9084881,76.4365621 C24.6052166,76.838563 24.4535809,77.2228286 24.4535809,77.5893588 C24.4535809,77.8731241 24.5340407,78.1066394 24.6949602,78.2899045 C24.8558798,78.4731696 25.0725022,78.5648022 25.3448276,78.5648022 C25.6295314,78.5648022 25.8461538,78.4761255 25.994695,78.2987722 C26.1432361,78.1214188 26.2175066,77.9322419 26.2175066,77.7312415 C26.2175066,77.4356526 26.1061008,77.1755343 25.8832891,76.9508868 C26.0194518,76.5843565 26.285588,76.2828558 26.6816976,76.0463847 C27.0778073,75.8099136 27.5296198,75.691678 28.0371353,75.691678 C28.8541114,75.691678 29.438992,75.9547522 29.7917772,76.4809004 C30.1445623,77.0070487 30.3209549,77.6603001 30.3209549,78.4406548 C30.3209549,79.0318327 30.1383731,79.6407458 29.7732095,80.2673943 C29.408046,80.8940427 28.8293546,81.5679854 28.0371353,82.2892224 C28.0247569,82.3010459 27.7771883,82.5197817 27.2944297,82.9454297 C26.6012378,83.5602547 26.0689655,84.0716235 25.6976127,84.4795362 C25.3262599,84.8874488 25.0137047,85.3574352 24.7599469,85.8894952 C24.5061892,86.4215553 24.3793103,87.0245566 24.3793103,87.6984993 L24.3793103,87.6984993 L32.4190981,87.6984993 Z M37.5251989,81.7571623 C38.1441202,81.7571623 38.7135279,81.5945884 39.2334218,81.2694407 C39.7533156,80.9442929 40.1679929,80.5127331 40.4774536,79.9747613 C40.7869142,79.4367894 40.9416446,78.8663029 40.9416446,78.2633015 C40.9416446,77.7075944 40.8178603,77.1784902 40.5702918,76.6759891 C40.3227233,76.1734879 39.9482759,75.7685312 39.4469496,75.4611187 C38.9456233,75.1537062 38.3421751,75 37.6366048,75 C36.9186561,75 36.2966401,75.1625739 35.770557,75.4877217 C35.2444739,75.8128695 34.8452697,76.2414734 34.5729443,76.7735334 C34.3006189,77.3055935 34.1644562,77.8613006 34.1644562,78.4406548 C34.1644562,79.0200091 34.2944297,79.5638927 34.5543767,80.0723056 C34.8143236,80.5807185 35.1980548,80.9886312 35.7055703,81.2960437 C36.2130858,81.6034561 36.8196286,81.7571623 37.5251989,81.7571623 Z M36.5596817,88 L47.0875332,75.7094134 L46.2519894,75 L35.7798408,87.3792633 L36.5596817,88 Z M37.5809019,81.047749 C36.9248453,81.047749 36.4575597,80.7462483 36.1790451,80.1432469 C35.9005305,79.5402456 35.7612732,78.8722146 35.7612732,78.1391542 C35.7612732,77.5479764 35.9036251,76.9804457 36.1883289,76.4365621 C36.4730327,75.8926785 36.9248453,75.6207367 37.5437666,75.6207367 C38.1750663,75.6207367 38.6330681,75.9222374 38.9177719,76.5252387 C39.2024757,77.1282401 39.3448276,77.8021828 39.3448276,78.5470668 C39.3448276,79.209186 39.2055703,79.7914961 38.9270557,80.2939973 C38.6485411,80.7964984 38.1998232,81.047749 37.5809019,81.047749 Z M45.5649867,87.9822647 C46.270557,87.9822647 46.8832891,87.8167349 47.403183,87.4856753 C47.9230769,87.1546157 48.3191866,86.7230559 48.5915119,86.1909959 C48.8638373,85.6589359 49,85.1091405 49,84.5416098 C49,83.9622556 48.8700265,83.418372 48.6100796,82.9099591 C48.3501326,82.4015462 47.9664014,81.9936335 47.4588859,81.686221 C46.9513705,81.3788085 46.3448276,81.2251023 45.6392573,81.2251023 C45.020336,81.2251023 44.4478338,81.3876762 43.9217507,81.712824 C43.3956676,82.0379718 42.9778957,82.4665757 42.668435,82.9986357 C42.3589744,83.5306958 42.204244,84.0982265 42.204244,84.7012278 C42.204244,85.256935 42.3311229,85.7860391 42.5848806,86.2885402 C42.8386384,86.7910414 43.219275,87.1989541 43.7267905,87.5122783 C44.2343059,87.8256025 44.847038,87.9822647 45.5649867,87.9822647 Z M45.6578249,87.3437926 C45.0389036,87.3437926 44.5778073,87.0363802 44.2745358,86.4215553 C43.9712644,85.8067303 43.8196286,85.1386994 43.8196286,84.4174625 C43.8196286,83.7553433 43.9588859,83.1730332 44.2374005,82.6705321 C44.5159151,82.1680309 44.9646331,81.9167804 45.5835544,81.9167804 C46.239611,81.9167804 46.7068966,82.218281 46.9854111,82.8212824 C47.2639257,83.4242838 47.403183,84.0923147 47.403183,84.8253752 C47.403183,85.4283765 47.2670203,85.9988631 46.994695,86.5368349 C46.7223696,87.0748067 46.2767462,87.3437926 45.6578249,87.3437926 Z" id="32%" fill="#2E51D1" fill-rule="nonzero"></path>
            <text id="Title" font-family="Luxia-Regular, Luxia" font-size="7" font-weight="normal" fill="#161B2E">
                <tspan x="25" y="98">Title</tspan>
            </text>
        </g>
    </g>
</svg>
